icons/creativecloud-filled.svg

<svg width="256" height="256" viewBox="0 0 256 256" fill="none" xmlns="http://www.w3.org/2000/svg">
<path d="M196 0H60C26.8629 0 0 26.8629 0 60V196C0 229.137 26.8629 256 60 256H196C229.137 256 256 229.137 256 196V60C256 26.8629 229.137 0 196 0Z" fill="#000B1D"/>
<path d="M200.1 81.2717C193.822 74.5032 186.204 69.1164 177.729 65.4544C169.255 61.7924 160.111 59.9354 150.88 60.0017C132.68 60.0017 114.16 67.8017 102.32 80.4217C100.149 80.176 97.9652 80.0525 95.78 80.0517C60.09 80.0517 38 110.052 38 137.892C38.1199 152.911 43.9098 167.33 54.21 178.262C59.5257 183.963 65.962 188.505 73.1153 191.603C80.2687 194.7 87.9849 196.286 95.78 196.262H150.88C188.28 196.262 218.7 165.602 218.7 127.912C218.549 110.586 211.913 93.9461 200.1 81.2717ZM94.75 186.382C86.9789 186.418 79.3157 184.563 72.4209 180.978C65.5261 177.393 59.6066 172.185 55.1728 165.803C50.7389 159.421 47.9238 152.056 46.97 144.344C46.0162 136.631 46.9524 128.803 49.6978 121.533C52.4433 114.263 56.9157 107.769 62.7294 102.613C68.5431 97.4559 75.5237 93.7905 83.0695 91.9323C90.6152 90.0741 98.4996 90.079 106.043 91.9464C113.587 93.8139 120.563 97.4879 126.37 102.652L126.6 102.852L146.45 123.222C147.993 124.854 148.831 127.028 148.783 129.274C148.734 131.52 147.803 133.656 146.19 135.22C144.578 136.783 142.414 137.649 140.168 137.629C137.922 137.609 135.774 136.704 134.19 135.112L114.53 114.932C110.099 111.118 104.667 108.656 98.8782 107.835C93.0897 107.015 87.1875 107.872 81.8712 110.305C76.5549 112.737 72.0476 116.643 68.8837 121.559C65.7197 126.475 64.0318 132.195 64.02 138.042C64.02 154.832 78.32 169.042 95.25 169.042H99.18V169.152C104.81 176.922 120.49 186.432 120.49 186.432L94.75 186.382ZM192.92 169.142C187.623 174.682 181.26 179.095 174.215 182.114C167.169 185.134 159.585 186.697 151.92 186.712C137.22 186.712 122.21 180.142 110.74 168.712L84.5 142.412C83.3255 141.213 82.5293 139.695 82.2105 138.047C81.8917 136.4 82.0643 134.695 82.7068 133.144C83.3494 131.594 84.4335 130.266 85.8245 129.327C87.2154 128.388 88.8518 127.878 90.53 127.862C91.6707 127.855 92.8009 128.08 93.8526 128.521C94.9043 128.963 95.8559 129.613 96.65 130.432L122.71 156.562C130.98 164.852 141.6 169.562 151.84 169.562C157.243 169.55 162.588 168.438 167.548 166.294C172.508 164.15 176.979 161.019 180.69 157.092C188.383 149.183 192.688 138.585 192.69 127.552C192.69 116.678 188.37 106.249 180.681 98.5603C172.992 90.8713 162.564 86.5517 151.69 86.5517C143.07 86.5517 135.95 88.2217 129 93.1717C128.92 93.1117 127 91.8617 124.91 90.5717C123.59 89.7717 122.17 88.9717 121.05 88.3617C119.93 87.7517 116.24 85.9317 114.12 85.0617C113.59 84.8417 112.91 84.5917 112.62 84.4917H112.68C123.48 74.3917 136.92 69.4917 151.68 69.4917C167.079 69.505 181.844 75.6266 192.734 86.5134C203.625 97.4002 209.751 112.163 209.77 127.562C209.804 143.094 203.756 158.023 192.92 169.152V169.142Z" fill="white"/>
</svg>

<svg xmlns="http://www.w3.org/2000/svg" width="256" height="256" fill="none"><path fill="#000B1D" d="M196 0H60C26.863 0 0 26.863 0 60v136c0 33.137 26.863 60 60 60h136c33.137 0 60-26.863 60-60V60c0-33.137-26.863-60-60-60"/><path fill="#fff" d="M200.1 81.272a66.47 66.47 0 0 0-49.22-21.27c-18.2 0-36.72 7.8-48.56 20.42a58 58 0 0 0-6.54-.37c-35.69 0-57.78 30-57.78 57.84a59.56 59.56 0 0 0 16.21 40.37 56.6 56.6 0 0 0 18.905 13.341 56.6 56.6 0 0 0 22.665 4.659h55.1c37.4 0 67.82-30.66 67.82-68.35a69.3 69.3 0 0 0-18.6-46.64M94.75 186.382a47.922 47.922 0 0 1-11.68-94.45 47.92 47.92 0 0 1 43.3 10.72l.23.2 19.85 20.37a8.543 8.543 0 0 1-.26 11.998 8.543 8.543 0 0 1-12-.108l-19.66-20.18a30.57 30.57 0 0 0-50.51 23.11c0 16.79 14.3 31 31.23 31h3.93v.11c5.63 7.77 21.31 17.28 21.31 17.28zm98.17-17.24a56.88 56.88 0 0 1-41 17.57c-14.7 0-29.71-6.57-41.18-18l-26.24-26.3a8.562 8.562 0 0 1 6.03-14.55 8.46 8.46 0 0 1 6.12 2.57l26.06 26.13c8.27 8.29 18.89 13 29.13 13a39.8 39.8 0 0 0 28.85-12.47 42.38 42.38 0 0 0 12-29.54 41 41 0 0 0-41-41c-8.62 0-15.74 1.67-22.69 6.62-.08-.06-2-1.31-4.09-2.6-1.32-.8-2.74-1.6-3.86-2.21s-4.81-2.43-6.93-3.3c-.53-.22-1.21-.47-1.5-.57h.06c10.8-10.1 24.24-15 39-15a58.14 58.14 0 0 1 58.09 58.07 59.43 59.43 0 0 1-16.85 41.59z"/></svg>
